images/team/twitter.svg

<svg height="32" viewBox="0 0 32 32" width="32" xmlns="http://www.w3.org/2000/svg"><g fill="none" fill-rule="evenodd"><path d="m2 0h28c1.1045695 0 2 .8954305 2 2v28c0 1.1045695-.8954305 2-2 2h-28c-1.1045695 0-2-.8954305-2-2v-28c0-1.1045695.8954305-2 2-2z" fill="#00aced"/><path d="m8 20.8430492c0 .0838627.04166624.1593381.125.2264283.13888949.0950446.38610933.2348137.74166667.4193117 1.35556263.704447 2.77777063 1.0566653 4.26666663 1.0566653 1.8555648 0 3.5416598-.4808058 5.0583339-1.442432.7222251-.4584496 1.3638848-1.0105387 1.9250005-1.6562802.5611136-.6457437 1.0069419-1.3194311 1.3374998-2.0210838.3305557-.7016505.577777-1.40469.7416661-2.1091378.1638891-.7044457.2402773-1.3893141.2291669-2.0546266v-.2935187c.6500032-.4696311 1.1583318-1.0063436 1.5249984-1.6101567.0333355-.0670898.0500011-.1174062.0500011-.1509511 0-.0726803-.0277781-.136975-.0833323-.1928839-.0555562-.0559089-.1194453-.0838612-.1916672-.0838612-.0388906 0-.1055552.0223618-.2.0670898-.0666666.0223619-.1486101.0503163-.2458346.0838613-.0972224.0335449-.1805547.062897-.249999.0880562-.0694442.0251593-.1152789.040533-.1374997.0461235.1444437-.1621342.2944427-.3815706.4499989-.6583179.1555563-.2767473.2333334-.4794124.2333334-.60800381 0-.07268033-.027776-.1355752-.0833323-.1886889s-.1222229-.07967056-.2-.07967056c-.0444459 0-.0888896.01397831-.1333333.04193278-.6333376.34104189-1.2249984.57305909-1.7749995.69605569-.6722261-.64294628-1.4749973-.96441515-2.4083349-.96441515-.9555606 0-1.76944.33544503-2.4416662 1.00634795-.6722261.6709008-1.0083328 1.4815632-1.0083328 2.4320065 0 .1677268.0111104.3046996.0333334.4109249-.938895-.0782708-1.8444416-.3046975-2.7166678-.6792844-.8722261-.3745868-1.655552-.8777544-2.3499989-1.5095219-.1611115-.1565437-.4722204-.4836031-.93333376-.9811887-.06666709-.0670899-.14444416-.1006348-.23333333-.1006348-.0666671 0-.13611094.0447259-.20833344.1341797-.14444523.2180431-.25833302.4850028-.34166678.8008855-.08333354.3158827-.12499989.624773-.12499989.9266774 0 .8330372.25833067 1.5598383.77500011 2.1804227l-.24166678-.1174083c-.1388896-.0614994-.24166634-.0922491-.30833344-.0922491-.0944448 0-.17361066.0279545-.23749994.0838634-.06388907.0559089-.09583339.1285871-.09583339.218041 0 .5870395.14999851 1.1433208.45000021 1.6688609.3000015.5255401.70555286.9448464 1.21666603 1.257936l-.0999996-.0167735c-.0652778-.0139762-.0805553-.0181712-.0916665-.0209664-.09722265-.0041929-.15972206.0237616-.21250009.0796705-.05277802.055909-.0791665.1174062-.0791665.1844961 0 .0055904.00555541.0363401.01666645.0922491.18889003.581449.50277504 1.0748333.94166574 1.4801698.4388928.4053366.9527765.6778867 1.5416682.8176591-.966673.5982204-2.033329.8973257-3.20000039.8973257-.07777835 0-.20277696-.0083861-.37500011-.0251586-.2333344-.0111818-.36111104-.0167724-.38333333-.0167724-.0722226 0-.13472197.0279538-.18749999.0838623-.05277805.0559085-.07916668.1202023-.07916668.1928833z" fill="#fff"/></g></svg>

<?xml version="1.0" encoding="UTF-8"?>
<svg width="32px" height="32px" viewBox="0 0 32 32" version="1.1" xmlns="http://www.w3.org/2000/svg" xmlns:xlink="http://www.w3.org/1999/xlink">
    <!-- Generator: Sketch 49.3 (51167) - http://www.bohemiancoding.com/sketch -->
    <title>twitter</title>
    <desc>Created with Sketch.</desc>
    <defs></defs>
    <g id="👨‍👨‍👧‍👧-team" stroke="none" stroke-width="1" fill="none" fill-rule="evenodd">
        <g id="team" transform="translate(-656.000000, -1303.000000)">
            <g transform="translate(160.000000, 923.000000)" id="member">
                <g transform="translate(384.000000, 0.000000)">
                    <g id="info" transform="translate(8.000000, 304.000000)">
                        <g transform="translate(24.000000, 15.000000)" id="twitter">
                            <g transform="translate(80.000000, 61.000000)">
                                <path d="M2,0 L30,0 C31.1045695,-2.02906125e-16 32,0.8954305 32,2 L32,30 C32,31.1045695 31.1045695,32 30,32 L2,32 C0.8954305,32 1.3527075e-16,31.1045695 0,30 L0,2 C-1.3527075e-16,0.8954305 0.8954305,2.02906125e-16 2,0 Z" id="input-bg" fill="#00ACED"></path>
                                <path d="M8,20.8430492 C8,20.9269119 8.04166624,21.0023873 8.125,21.0694775 C8.26388949,21.1645221 8.51110933,21.3042912 8.86666667,21.4887892 C10.2222293,22.1932362 11.6444373,22.5454545 13.1333333,22.5454545 C14.9888981,22.5454545 16.6749931,22.0646487 18.1916672,21.1030225 C18.9138923,20.6445729 19.555552,20.0924838 20.1166677,19.4467423 C20.6777813,18.8009986 21.1236096,18.1273112 21.4541675,17.4256585 C21.7847232,16.724008 22.0319445,16.0209685 22.1958336,15.3165207 C22.3597227,14.612075 22.4361109,13.9272066 22.4250005,13.2618941 L22.4250005,12.9683754 C23.0750037,12.4987443 23.5833323,11.9620318 23.9499989,11.3582187 C23.9833344,11.2911289 24,11.2408125 24,11.2072676 C24,11.1345873 23.9722219,11.0702926 23.9166677,11.0143837 C23.8611115,10.9584748 23.7972224,10.9305225 23.7250005,10.9305225 C23.6861099,10.9305225 23.6194453,10.9528843 23.5250005,10.9976123 C23.4583339,11.0199742 23.3763904,11.0479286 23.2791659,11.0814736 C23.1819435,11.1150185 23.0986112,11.1443706 23.0291669,11.1695298 C22.9597227,11.1946891 22.913888,11.2100628 22.8916672,11.2156533 C23.0361109,11.0535191 23.1861099,10.8340827 23.3416661,10.5573354 C23.4972224,10.2805881 23.5749995,10.077923 23.5749995,9.94933159 C23.5749995,9.87665126 23.5472235,9.81375639 23.4916672,9.76064269 C23.4361109,9.70752899 23.3694443,9.68097213 23.2916672,9.68097213 C23.2472213,9.68097213 23.2027776,9.69495044 23.1583339,9.72290491 C22.5249963,10.0639468 21.9333355,10.295964 21.3833344,10.4189606 C20.7111083,9.77601432 19.9083371,9.45454545 18.9749995,9.45454545 C18.0194389,9.45454545 17.2055595,9.78999048 16.5333333,10.4608934 C15.8611072,11.1317942 15.5250005,11.9424566 15.5250005,12.8928999 C15.5250005,13.0606267 15.5361109,13.1975995 15.5583339,13.3038248 C14.6194389,13.225554 13.7138923,12.9991273 12.8416661,12.6245404 C11.96944,12.2499536 11.1861141,11.746786 10.4916672,11.1150185 C10.3305557,10.9584748 10.0194468,10.6314154 9.55833344,10.1338298 C9.49166635,10.0667399 9.41388928,10.033195 9.32500011,10.033195 C9.25833301,10.033195 9.18888917,10.0779209 9.11666667,10.1673747 C8.97222144,10.3854178 8.85833365,10.6523775 8.77499989,10.9682602 C8.69166635,11.2841429 8.65,11.5930332 8.65,11.8949376 C8.65,12.7279748 8.90833067,13.4547759 9.42500011,14.0753603 L9.18333333,13.957952 C9.04444373,13.8964526 8.94166699,13.8657029 8.87499989,13.8657029 C8.78055509,13.8657029 8.70138923,13.8936574 8.63749995,13.9495663 C8.57361088,14.0054752 8.54166656,14.0781534 8.54166656,14.1676073 C8.54166656,14.7546468 8.69166507,15.3109281 8.99166677,15.8364682 C9.29166827,16.3620083 9.69721963,16.7813146 10.2083328,17.0944042 L10.1083332,17.0776307 C10.0430554,17.0636545 10.0277779,17.0594595 10.0166667,17.0566643 C9.91944405,17.0524714 9.85694464,17.0804259 9.80416661,17.1363348 C9.75138859,17.1922438 9.72500011,17.253741 9.72500011,17.3208309 C9.72500011,17.3264213 9.73055552,17.357171 9.74166656,17.41308 C9.93055659,17.994529 10.2444416,18.4879133 10.6833323,18.8932498 C11.1222251,19.2985864 11.6361088,19.5711365 12.2250005,19.7109089 C11.2583275,20.3091293 10.1916715,20.6082346 9.02500011,20.6082346 C8.94722176,20.6082346 8.82222315,20.5998485 8.65,20.583076 C8.4166656,20.5718942 8.28888896,20.5663036 8.26666667,20.5663036 C8.19444407,20.5663036 8.1319447,20.5942574 8.07916668,20.6501659 C8.02638863,20.7060744 8,20.7703682 8,20.8430492 Z" id="twitter-icon--white" fill="#FFFFFF"></path>
                            </g>
                        </g>
                    </g>
                </g>
            </g>
        </g>
    </g>
</svg>
